X: 1942
T: Arrane Y Chlean
R: waltz
M: 3/4
K: Dmajor
DE|:F2 F2 AF|G E3 AG|F2 DE FD|E2 D2 DE|
F2 F2 AF|G E3 AG|E2 D2 E2|1 D4 DE:|2 D3A AB||
|:c2 c2 BA|B/c/B AD DE|F2 DE FD|
[1 E2 D2 AB|c2 c2 BA|B/c/B AD DE|F3d ^c/B/c|d4 AB:|
[2 E2 D2 DE|F2 F2 AF|G E3 AG|E2 D2 E2|D6||

